images/freeCellPlaceholder1.svg

<svg xmlns="http://www.w3.org/2000/svg" width="179" height="250" viewBox="0 0 179 250">
    <path fill-opacity=".204" d="M166.138 0C173.241 0 179 5.643 179 12.605v224.79c0 6.962-5.759 12.605-12.862 12.605H12.862C5.759 250 0 244.357 0 237.395V12.605C0 5.643 5.759 0 12.862 0zm0 6H12.862C9.046 6 6 8.985 6 12.605v224.79c0 3.62 3.046 6.605 6.862 6.605h153.276c3.816 0 6.862-2.985 6.862-6.605V12.605C173 8.985 169.954 6 166.138 6"/>
    <path fill-opacity=".203" d="M55.64 158.487q-.571-.33-1.112-.054-.541.277-1.171 1.368l-9.72 16.836 6.443 3.72 5.88-10.185q.6-1.039.723-1.731.122-.691-.606-1.111l.54-.936 7.483 4.32-.54.936q-1.195-.69-1.863-.314-.668.377-1.268 1.416l-5.88 10.185 10.081 5.82q.467.27.956-.037t.879-.982l.935.54-5.1 8.833-.935-.54q.78-1.351-.155-1.891l-23.591-13.62q-.935-.54-1.715.811l-.935-.54 13.92-24.11q.63-1.091.547-1.728-.083-.636-.655-.966l.54-.936 6.859 3.96zM75.358 139.455q1.08-1.87 1.514-3.282t.334-2.44q-.099-1.027-.621-1.744-.521-.717-1.353-1.197-.831-.48-1.712-.573-.882-.093-1.822.334-.939.428-1.945 1.51t-2.086 2.952l-5.19 8.99 7.691 4.44zm-11.379-8.371q1.44-2.494 3.051-4.265 1.612-1.772 3.413-2.672t3.784-.794 4.218 1.396q3.429 1.98 4.078 5.056.648 3.077-.708 6.866l13.863-1.211q.729-.064 1.118-.497.389-.434.629-.85l.935.54-5.61 9.717-.935-.54q.27-.467.309-.895t-.221-.578-.717-.137-1.269.099l-11.406 1.035-4.29 7.431 9.249 5.34q.467.27.896.067t.939-1.086l.935.54-5.19 8.989-.935-.54q.87-1.507-.065-2.047l-23.591-13.62q-.935-.54-1.805.967l-.935-.54zM95.99 88.598q-.571-.33-1.112-.053t-1.171 1.368l-9.72 16.835 6.443 3.72 5.88-10.184q.6-1.039.645-1.776.044-.736-1.151-1.426l.54-.936 8.106 4.68-.54.936q-1.195-.69-1.863-.314-.668.377-1.268 1.416l-5.88 10.184 7.171 4.14 10.02-17.355q.45-.779.371-1.483-.079-.703-.702-1.063l.54-.936 7.119 4.11-.54.936q-.78-.45-1.169-.017-.389.434-.839 1.213l-13.98 24.214-.935-.54q.21-.363.141-.784t-.536-.691l-23.591-13.62q-.467-.27-.866-.119t-.609.514l-.935-.54 13.68-23.694q.63-1.091.547-1.728t-.655-.967l.54-.935 6.859 3.96zM116 53.94q-.571-.33-1.112-.053-.541.276-1.171 1.367l-9.72 16.836 6.443 3.72 5.88-10.184q.6-1.04.645-1.776.044-.737-1.151-1.427l.54-.935 8.106 4.68-.54.935q-1.195-.69-1.863-.313t-1.268 1.416l-5.88 10.184 7.171 4.14 10.02-17.355q.45-.78.371-1.483t-.702-1.064l.54-.935 7.119 4.11-.54.935q-.78-.45-1.169-.016-.389.433-.839 1.213L122.9 92.149l-.935-.54q.21-.364.141-.785-.069-.42-.536-.69l-23.591-13.62q-.467-.27-.866-.12t-.609.515l-.935-.54 13.68-23.695q.63-1.091.547-1.727t-.655-.967l.54-.935 6.859 3.96z"/>
</svg>

<?xml version="1.0" encoding="UTF-8"?>
<!DOCTYPE svg PUBLIC "-//W3C//DTD SVG 1.1//EN" "http://www.w3.org/Graphics/SVG/1.1/DTD/svg11.dtd">
<svg version="1.1" xmlns="http://www.w3.org/2000/svg" xmlns:xlink="http://www.w3.org/1999/xlink" x="0" y="0" width="179" height="250" viewBox="0, 0, 179, 250">
  <g id="Free_(dark)" transform="translate(-0, -0)">
    <path d="M166.138,0 C173.241,0 179,5.643 179,12.605 L179,237.395 C179,244.357 173.241,250 166.138,250 L12.862,250 C5.759,250 0,244.357 0,237.395 L0,12.605 C0,5.643 5.759,0 12.862,0 L166.138,0 z M166.138,6 L12.862,6 C9.046,6 6,8.985 6,12.605 L6,237.395 C6,241.015 9.046,244 12.862,244 L166.138,244 C169.954,244 173,241.015 173,237.395 L173,12.605 C173,8.985 169.954,6 166.138,6 z" fill="#000000" fill-opacity="0.204"/>
    <path d="M55.64,158.487 Q55.069,158.157 54.528,158.433 Q53.987,158.71 53.357,159.801 L43.637,176.637 L50.08,180.357 L55.96,170.172 Q56.56,169.133 56.683,168.441 Q56.805,167.75 56.077,167.33 L56.617,166.394 L64.1,170.714 L63.56,171.65 Q62.365,170.96 61.697,171.336 Q61.029,171.713 60.429,172.752 L54.549,182.937 L64.63,188.757 Q65.097,189.027 65.586,188.72 Q66.075,188.413 66.465,187.738 L67.4,188.278 L62.3,197.111 L61.365,196.571 Q62.145,195.22 61.21,194.68 L37.619,181.06 Q36.684,180.52 35.904,181.871 L34.969,181.331 L48.889,157.221 Q49.519,156.13 49.436,155.493 Q49.353,154.857 48.781,154.527 L49.321,153.591 L56.18,157.551 z" fill="#000000" fill-opacity="0.203"/>
    <path d="M75.358,139.455 Q76.438,137.585 76.872,136.173 Q77.306,134.761 77.206,133.733 Q77.107,132.706 76.585,131.989 Q76.064,131.272 75.232,130.792 Q74.401,130.312 73.52,130.219 Q72.638,130.126 71.698,130.553 Q70.759,130.981 69.753,132.063 Q68.747,133.145 67.667,135.015 L62.477,144.005 L70.168,148.445 z M63.979,131.084 Q65.419,128.59 67.03,126.819 Q68.642,125.047 70.443,124.147 Q72.244,123.247 74.227,123.353 Q76.21,123.459 78.445,124.749 Q81.874,126.729 82.523,129.805 Q83.171,132.882 81.815,136.671 L95.678,135.46 Q96.407,135.396 96.796,134.963 Q97.185,134.529 97.425,134.113 L98.36,134.653 L92.75,144.37 L91.815,143.83 Q92.085,143.363 92.124,142.935 Q92.163,142.507 91.903,142.357 Q91.644,142.207 91.186,142.22 Q90.728,142.233 89.917,142.319 L78.511,143.354 L74.221,150.785 L83.47,156.125 Q83.937,156.395 84.366,156.192 Q84.795,155.989 85.305,155.106 L86.24,155.646 L81.05,164.635 L80.115,164.095 Q80.985,162.588 80.05,162.048 L56.459,148.428 Q55.524,147.888 54.654,149.395 L53.719,148.855 z" fill="#000000" fill-opacity="0.203"/>
    <path d="M95.99,88.598 Q95.419,88.268 94.878,88.545 Q94.337,88.822 93.707,89.913 L83.987,106.748 L90.43,110.468 L96.31,100.284 Q96.91,99.245 96.955,98.508 Q96.999,97.772 95.804,97.082 L96.344,96.146 L104.45,100.826 L103.91,101.762 Q102.715,101.072 102.047,101.448 Q101.379,101.825 100.779,102.864 L94.899,113.048 L102.07,117.188 L112.09,99.833 Q112.54,99.054 112.461,98.35 Q112.382,97.647 111.759,97.287 L112.299,96.351 L119.418,100.461 L118.878,101.397 Q118.098,100.947 117.709,101.38 Q117.32,101.814 116.87,102.593 L102.89,126.807 L101.955,126.267 Q102.165,125.904 102.096,125.483 Q102.027,125.062 101.56,124.792 L77.969,111.172 Q77.502,110.902 77.103,111.053 Q76.704,111.204 76.494,111.567 L75.559,111.027 L89.239,87.333 Q89.869,86.242 89.786,85.605 Q89.703,84.968 89.131,84.638 L89.671,83.703 L96.53,87.663 z" fill="#000000" fill-opacity="0.203"/>
    <path d="M116,53.94 Q115.429,53.61 114.888,53.887 Q114.347,54.163 113.717,55.254 L103.997,72.09 L110.44,75.81 L116.32,65.626 Q116.92,64.586 116.965,63.85 Q117.009,63.113 115.814,62.423 L116.354,61.488 L124.46,66.168 L123.92,67.103 Q122.725,66.413 122.057,66.79 Q121.389,67.166 120.789,68.206 L114.909,78.39 L122.08,82.53 L132.1,65.175 Q132.55,64.395 132.471,63.692 Q132.392,62.988 131.769,62.628 L132.309,61.693 L139.428,65.803 L138.888,66.738 Q138.108,66.288 137.719,66.722 Q137.33,67.155 136.88,67.935 L122.9,92.149 L121.965,91.609 Q122.175,91.245 122.106,90.824 Q122.037,90.404 121.57,90.134 L97.979,76.514 Q97.512,76.244 97.113,76.394 Q96.714,76.545 96.504,76.909 L95.569,76.369 L109.249,52.674 Q109.879,51.583 109.796,50.947 Q109.713,50.31 109.141,49.98 L109.681,49.045 L116.54,53.005 z" fill="#000000" fill-opacity="0.203"/>
  </g>
</svg>
